static/img/contribute_reputation.svg

<svg xmlns="http://www.w3.org/2000/svg" viewBox="0 0 90 90" version="1.1">
  <circle cx="45" cy="45" r="20.769" fill="#FDE491"/>
  <path d="m70.385 25.385 5.298 14.318 14.318 5.298-14.318 5.2979-5.298 14.318-5.2979-14.318-14.318-5.2979 14.318-5.298 5.2979-14.318z" fill="#DFAC06"/>
  <path d="m19.616 25.385 5.2979 14.318 14.318 5.298-14.318 5.2979-5.2979 14.318-5.298-14.318-14.318-5.2979 14.318-5.298 5.298-14.318z" fill="#DFAC06"/>
  <path d="m45.001 0 5.2979 14.318 14.318 5.298-14.318 5.2979-5.2979 14.318-5.298-14.318-14.318-5.2979 14.318-5.298 5.298-14.318z" fill="#FCD65F"/>
  <path d="m45.001 50.769 5.2979 14.318 14.318 5.298-14.318 5.2979-5.2979 14.318-5.298-14.318-14.318-5.2979 14.318-5.298 5.298-14.318z" fill="#B09026"/>
</svg>

<svg xmlns="http://www.w3.org/2000/svg" fill="none" viewBox="0 0 90 90" version="1.1">
  <circle cx="44.9996" cy="45.0001" r="20.7693" fill="#FDE491"/>
  <path d="M70.3847 25.3846L75.6827 39.7021L90.0002 45.0001L75.6827 50.298L70.3847 64.6155L65.0868 50.298L50.7693 45.0001L65.0868 39.7021L70.3847 25.3846Z" fill="#DFAC06"/>
  <path d="M19.6155 25.3846L24.9134 39.7021L39.2309 45.0001L24.9134 50.298L19.6155 64.6155L14.3175 50.298L0 45.0001L14.3175 39.7021L19.6155 25.3846Z" fill="#DFAC06"/>
  <path d="M45.0006 0L50.2985 14.3175L64.616 19.6155L50.2985 24.9134L45.0006 39.2309L39.7026 24.9134L25.3851 19.6155L39.7026 14.3175L45.0006 0Z" fill="#FCD65F"/>
  <path d="M45.0006 50.7694L50.2985 65.0869L64.616 70.3849L50.2985 75.6828L45.0006 90.0003L39.7026 75.6828L25.3851 70.3849L39.7026 65.0869L45.0006 50.7694Z" fill="#B09026"/>
</svg>
